!!!AGN: Motet
!!!SCT: Benthem (2011)
!!!voices: 4
!!!COM: Anonymous
!!!OTL: Domine quis habitabit (Motetti novi e chanzoni)
**kern	**kern	**kern	**kern
*part4	*part3	*part2	*part1
*staff4	*staff3	*staff2	*staff1
*I"Bassus	*I"Tenor	*I"Altus	*I"Superius
*I'B	*I'T	*I'A	*I'S
*clefF4	*clefGv2	*clefGv2	*clefG2
*k[]	*k[]	*k[]	*k[]
*C:	*C:	*C:	*C:
*M2/1	*M2/1	*M2/1	*M2/1
*met(C2)	*met(C2)	*met(C2)	*met(C2)
!!section: Prima pars: Domine quis habitabit
!!!OMD: Prima pars: Domine quis habitabit
!	!	!LO:TX:a:t=Canon&colon; altus/bassus at the seventh	!LO:TX:a:t=Canon&colon; superius/tenor at the seventh
0r	0r	1r	1.d
.	.	[1d	.
.	.	.	2d
=1	=1	=1	=1
0r	0r	2d]	1f
.	.	2d	.
.	.	1d	1f
=2	=2	=2	=2
0r	0r	1e	1g
.	.	2e	1g
.	.	2d	.
=3	=3	=3	=3
0r	0r	1B	0g
.	.	1c	.
=4	=4	=4	=4
0r	0r	1F	1a
.	.	1f	1a
=5	=5	=5	=5
1r	1.E	1e	1g
[1E	.	[1e	2g
.	2E	.	[2e
=6	=6	=6	=6
2E]	1G	2e]	4e]
.	.	.	4f
2E	.	2e	4g
.	.	.	4a
1E	1G	2e	1b
.	.	2e	.
=7	=7	=7	=7
1F	1A	1c	2.a
.	.	.	4b
2F	1A	2c	2cc
2E	.	[2e	[2cc
=8	=8	=8	=8
1C	0A	4e]	4cc]
.	.	4d	4b
.	.	4c	4a
.	.	4B	4g
1D	.	1A	1f#i
=9	=9	=9	=9
1GG	1B	0G	0g
1G	1B	.	.
=10	=10	=10	=10
1F	1A	0r	0r
[1F	2A	.	.
.	[2F	.	.
=11	=11	=11	=11
2F]	4F]	0r	0r
.	4G	.	.
2F	4A	.	.
.	4B	.	.
2F	1c	.	.
2F	.	.	.
=12	=12	=12	=12
1D	2.B	0r	0r
.	4c	.	.
2D	2d	.	.
[2F	[2d	.	.
=13	=13	=13	=13
4F]	4d]	0r	0r
4E	4c	.	.
4D	4B	.	.
4C	4A	.	.
1BB	1G#i	.	.
=14	=14	=14	=14
0AA	0A	0r	1r
.	.	.	[1cc
=15	=15	=15	=15
0r	0r	1f	2cc]
.	.	.	2b
.	.	2f	2a
.	.	2e	2g
=16	=16	=16	=16
0r	0r	2d	2f
.	.	2c	2e
.	.	2B	2d
.	.	2G	[2g
=17	=17	=17	=17
0r	0r	1A	2g]
.	.	.	2f
.	.	2G	2.g
.	.	4B	.
.	.	4A	4f
=18	=18	=18	=18
0r	0r	4B	4d
.	.	4c	4e
.	.	1d	4f
.	.	.	4d
.	.	.	1e
.	.	2c#i	.
=19	=19	=19	=19
0r	1r	0d	[0d
.	[1d	.	.
=20	=20	=20	=20
1G	2d]	0r	0d]
.	2c	.	.
2G	2B	.	.
2F	2A	.	.
=21	=21	=21	=21
2E	2G	0r	0r
2D	2F	.	.
2C	2E	.	.
2AA	[2A	.	.
=22	=22	=22	=22
1BB	2A]	0r	0r
.	2G	.	.
2AA	2.A	.	.
4C	.	.	.
4BB	4G	.	.
=23	=23	=23	=23
4C	4E	0r	0r
4D	4F	.	.
1E	4G	.	.
.	4E	.	.
.	1F	.	.
2D	.	.	.
=24	=24	=24	=24
0E	[0E	0e	0g
=25	=25	=25	=25
0r	0E]	1e	1g
.	.	1e	1g
=26	=26	=26	=26
0r	0r	1.f	1a
.	.	.	[1cc
.	.	4e	.
.	.	4d	.
=27	=27	=27	=27
0r	0r	2e	2cc]
.	.	2f	4b
.	.	.	4a
.	.	2g	2b
.	.	2e	2cc
=28	=28	=28	=28
0r	0r	0d	2dd
.	.	.	2b
.	.	.	[1a
=29	=29	=29	=29
0F	0A	0f	1a]
.	.	.	1a
=30	=30	=30	=30
1F	1A	1.f	1cc
1F	1A	.	1cc
.	.	2e	.
=31	=31	=31	=31
1.G	1B	1d	0b
.	[1d	1G	.
4F	.	.	.
4E	.	.	.
=32	=32	=32	=32
2F	2d]	1A	0a
2G	4c	.	.
.	4B	.	.
2A	2c	1F	.
2F	2d	.	.
=33	=33	=33	=33
0E	2e	0G	0g
.	2c	.	.
.	[1B	.	.
=34	=34	=34	=34
0G	1B]	1r	1r
.	1B	1g	1b
=35	=35	=35	=35
1.G	1d	2g	2b
.	.	2g	2b
.	1d	2g	1b
2F	.	[2g	.
=36	=36	=36	=36
1E	0c	2g]	1g
.	.	2f	.
1AA	.	1e	1cc
=37	=37	=37	=37
1BB	0B	0d	1dd
1GG	.	.	1b
=38	=38	=38	=38
0AA	0A	[0c	0cc
=39	=39	=39	=39
1r	1r	0c]	1r
1A	1c	.	1cc
=40	=40	=40	=40
2A	2c	0r	1cc
2A	2c	.	.
2A	1c	.	[1cc
[2A	.	.	.
=41	=41	=41	=41
2A]	1A	0r	2cc]
2G	.	.	2b
1F	1d	.	1a
=42	=42	=42	=42
0E	1e	1r	0g
.	1c	1c	.
=43	=43	=43	=43
[0D	0d	2A	2r
.	.	1B	1f
.	.	4A	2g
.	.	4G	.
=44	=44	=44	=44
0D]	1r	0F	2a
.	.	.	2b
.	1d	.	2a
.	.	.	[2d
=45	=45	=45	=45
0r	1d	1G	4d]
.	.	.	4e
.	.	.	4f
.	.	.	4g
.	[1d	2F	2a
.	.	[2G	[2b
=46	=46	=46	=46
0r	2d]	2G]	2b]
.	2c	2A	1a
.	1B	1B	.
.	.	.	2g#i
=47	=47	=47	=47
1r	0A	1c	4a
.	.	.	4g
.	.	.	4f
.	.	.	4e
1D	.	1d	1f
=48	=48	=48	=48
2BB	2r	1G	[0g
1C	1G	.	.
.	.	1c	.
4BB	2A	.	.
4AA	.	.	.
=49	=49	=49	=49
0GG	2B	2B	0g]
.	2c	2.e	.
.	2B	.	.
.	.	4d	.
.	[2E	4c	.
.	.	4B	.
=50	=50	=50	=50
1AA	4E]	1c	0r
.	4F	.	.
.	4G	.	.
.	4A	.	.
2GG	2B	2B	.
[2AA	[2c	[2e	.
=51	=51	=51	=51
2AA]	2c]	2e]	0r
2BB	1B	2d	.
1C	.	1e	.
.	2A	.	.
=52	=52	=52	=52
1D	4B	1d	0r
.	4A	.	.
.	4G#i	.	.
.	4F#i	.	.
1E	1G#i	1B	.
=53	=53	=53	=53
1AA	[0A	1c	2r
.	.	.	2e
1D	.	1r	1f
=54	=54	=54	=54
2C	0A]	1r	2e
2.F	.	.	2.d
.	.	2r	.
4E	.	.	4c
4D	.	2e	[2c
4C	.	.	.
=55	=55	=55	=55
1D	0r	1f	2c]
.	.	.	2B
2C	.	2e	1c
[2F	.	2c	.
=56	=56	=56	=56
2F]	0r	2d	2f
2E	.	2e	2g
1F	.	2.c	2a
.	.	.	4g
.	.	4A	4f
=57	=57	=57	=57
1E	0r	4B	4g
.	.	4A	4f
.	.	4G	4e
.	.	4F	4d
1C	.	1G	1e
=58	=58	=58	=58
1D	2r	2F	1f
.	2F	1f	.
1r	1G	.	1r
.	.	2e	.
=59	=59	=59	=59
1r	2F	2d	0r
.	2.E	1c	.
2r	.	.	.
.	4D	.	.
2F	[2D	[2f	.
=60	=60	=60	=60
1G	2D]	2f]	0r
.	2C	2e	.
2F	1D	1f	.
2D	.	.	.
=61	=61	=61	=61
2E	2G	0r	0r
2F	2A	.	.
2.D	2B	.	.
.	4A	.	.
4BB	4G	.	.
=62	=62	=62	=62
4C	4A	0r	0r
4BB	4G	.	.
4AA	4F	.	.
4GG	4E	.	.
1AA	1F#i	.	.
=63	=63	=63	=63
2GG	1G	0d	0r
1G	.	.	.
.	1r	.	.
2F	.	.	.
=64	=64	=64	=64
2E	0r	2c	0r
1D	.	1d	.
[2G	.	4c	.
.	.	4B	.
=65	=65	=65	=65
2G]	0r	1A	1r
2F#i	.	.	.
1G	.	2.G	1dd
.	.	4A	.
=66	=66	=66	=66
0r	0r	4B	1dd
.	.	4c	.
.	.	2d	.
.	.	2e	2cc
.	.	2f	[2dd
=67	=67	=67	=67
0r	0r	2d	2dd]
.	.	1g	4cc
.	.	.	4b
.	.	.	1a
.	.	2f#i	.
=68	=68	=68	=68
0E	0r	1g	1g
.	.	1G	1g
=69	=69	=69	=69
2D	0r	1r	2f
1E	.	.	1g
.	.	[1G	.
4D	.	.	4f
4C	.	.	4e
=70	=70	=70	=70
1BB	1r	1G]	1d
2.AA	1e	2.A	1c
4BB	.	4G	.
=71	=71	=71	=71
4C	1e	4A	1r
4D	.	4B	.
2E	.	2c	.
2F	2d	2A	2r
2G	[2e	2B	[2g
=72	=72	=72	=72
2E	2e]	2c	2g]
1A	4d	2f	2a
.	4c	.	.
.	1B	2.e	1b
2G#i	.	.	.
.	.	4d	.
=73	=73	=73	=73
1A	1A	0c	2cc
.	.	.	1a
1AA	1A	.	.
.	.	.	4g
.	.	.	4f
=74	=74	=74	=74
1r	2G	2r	2e
.	1A	1F	2.f
[1AA	.	.	.
.	.	.	4e
.	4G	2G	[2d
.	4F	.	.
=75	=75	=75	=75
1AA]	1E	1A	2d]
.	.	.	2c
2.BB	1D	1G	2.d
4AA	.	.	4c
=76	=76	=76	=76
4BB	1r	1.d	2B
4C	.	.	.
2D	.	.	2A
2BB	2r	.	2d
2C	[2A	4c	2e
.	.	4B	.
=77	=77	=77	=77
2D	2A]	2A	2f
2G	2B	2e	2g
2.F	1c	1f	1a
4E	.	.	.
=78	=78	=78	=78
0D	2d	2f	2r
.	1B	1d	2dd
.	.	.	2dd
.	4A	4c	[2dd
.	4G	4B	.
=79	=79	=79	=79
2r	2F	2A	4dd]
.	.	.	4cc
1GG	2.G	1B	4b
.	.	.	4a
.	.	.	2g
.	4F	.	.
2AA	[2E	[2A	2cc
=80	=80	=80	=80
1BB	2E]	4A]	1dd
.	.	4G#i	.
.	2D	2G#i	.
[1AAl	[1El	[1Al	1cc
=81	=81	=81	=81
0AA_	0E_	0A_	2cc
.	.	.	1a
.	.	.	4g
.	.	.	4f
=82	=82	=82	=82
00AA]	00E]	00A]	00e
=83||	=83||	=83||	=83||
*M2/1	*M2/1	*M2/1	*M2/1
*met(C2)	*met(C2)	*met(C2)	*met(C2)
!!section: Secunda pars: Nec fecit
!!!OMD: Secunda pars: Nec fecit
!	!	!LO:TX:a:t=Canon&colon; altus/bassus at the ninth	!LO:TX:a:t=Canon&colon; superius/tenor at the ninth
0r	0r	1.d	1r
.	.	.	[1a
.	.	4c	.
.	.	4B	.
=84	=84	=84	=84
0r	0r	4c	2a]
.	.	4d	.
.	.	4e	4g
.	.	4f	4f
.	.	2e	4g
.	.	.	4a
.	.	4d	4b
.	.	4c	4cc
=85	=85	=85	=85
0r	0r	4d	2b
.	.	4c	.
.	.	4B	1a
.	.	4A	.
.	.	1B	.
.	.	.	2g#i
=86	=86	=86	=86
0r	0r	0A	4a
.	.	.	4g
.	.	.	4f
.	.	.	4e
.	.	.	1f
=87	=87	=87	=87
1.C	1r	0r	0e
.	[1G	.	.
4BB	.	.	.
4AA	.	.	.
=88	=88	=88	=88
4BB	2G]	0r	0r
4C	.	.	.
4D	4F	.	.
4E	4E	.	.
2D	4F	.	.
.	4G	.	.
4C	4A	.	.
4BB	4B	.	.
=89	=89	=89	=89
4C	2A	1r	0r
4BB	.	.	.
4AA	1G	.	.
4GG	.	.	.
1AA	.	1A	.
.	2F#i	.	.
=90	=90	=90	=90
0GG	4G	1B	2.g
.	4F	.	.
.	4E	.	.
.	4D	.	4g
.	1E	1B	2g
.	.	.	2g
=91	=91	=91	=91
0r	0D	2.d	2.f
.	.	4e	4g
.	.	4f	4a
.	.	4g	4g
.	.	[2f	4a
.	.	.	4b
=92	=92	=92	=92
0r	0r	2f]	2cc
.	.	2d	2dd
.	.	1e	2.g
.	.	.	4a
=93	=93	=93	=93
1r	0r	1d	4b
.	.	.	4cc
.	.	.	1dd
1GG	.	1B	.
.	.	.	2b
=94	=94	=94	=94
1AA	2.F	0A	1cc
.	4F	.	.
1AA	2F	.	1a
.	2F	.	.
=95	=95	=95	=95
2.C	2.E	1.e	2.g
4D	4F	.	4f
4E	4G	.	4e
4F	4F	.	4d
[2E	4G	2B	[2g
.	4A	.	.
=96	=96	=96	=96
2E]	2B	2e	2g]
2C	2c	2A	2a
1D	2.F	1B	1f
.	4G	.	.
=97	=97	=97	=97
1C	4A	2r	1e
.	4B	.	.
.	1c	2e	.
1AA	.	2e	1e
.	2A	2c	.
=98	=98	=98	=98
0GG	1B	4d	1g
.	.	4c	.
.	.	4B	.
.	.	4A	.
.	1G	1B	1g
=99	=99	=99	=99
1.D	2.F	1A	0a
.	4E	.	.
.	4D	2d	.
.	4C	.	.
2AA	[2F	2c	.
=100	=100	=100	=100
2D	2F]	2A	1r
2GG	2G	2.d	.
1AA	1E	.	1e
.	.	4c#i	.
.	.	2c#i	.
=101	=101	=101	=101
2r	1D	0d	2f
2D	.	.	2d
2D	1D	.	2f
2BB	.	.	2g
=102	=102	=102	=102
4C	1F	0r	2a
4BB	.	.	.
4AA	.	.	2b
4GG	.	.	.
1AA	1F	.	1cc
=103	=103	=103	=103
1GG	0G	1B	1b
2C	.	2e	1g
2BB	.	2d	.
=104	=104	=104	=104
2GG	1r	2B	0r
2.C	.	2e	.
.	1D	1f	.
4BB	.	.	.
2BB	.	.	.
=105	=105	=105	=105
0C	2E	0e	1g
.	2C	.	.
.	2E	.	2a
.	2F	.	2cc
=106	=106	=106	=106
0r	2G	0r	2b
.	2A	.	1a
.	1B-i	.	.
.	.	.	2g
=107	=107	=107	=107
1AA	1A	2r	1a
.	.	2.A	.
2D	1F	.	[1a
.	.	4B	.
2C	.	4c	.
.	.	4d	.
=108	=108	=108	=108
2AA	0r	4e	2a]
.	.	4f	.
2D	.	1d	2f
1E	.	.	1g
.	.	2c#i	.
=109	=109	=109	=109
0D	1F	1d	2f
.	.	.	2a
.	2G	2.B	2b
.	2B	.	2dd
.	.	4G	.
=110	=110	=110	=110
0r	2A	2A	2cc
.	1G	2B	2b
.	.	1c	4a
.	.	.	4g
.	2F#i	.	2a
=111	=111	=111	=111
2r	1G	2.B	0b
2.GG	.	.	.
.	.	4c	.
.	[1G	4d	.
4AA	.	4c	.
4BB	.	4d	.
4C	.	4e	.
=112	=112	=112	=112
4D	2G]	2B	0r
4E	.	.	.
1C	2E	1e	.
.	1F	.	.
2BB	.	2d	.
=113	=113	=113	=113
1C	2E	1e	0r
.	2G	.	.
2.AA	2A	1r	.
.	2c	.	.
4FF	.	.	.
=114	=114	=114	=114
2GG	2B	1r	1r
2AA	2A	.	.
1BB	4G	1B	1dd
.	4F	.	.
.	2G	.	.
=115	=115	=115	=115
2.AA	0A	2c	2.cc
.	.	1e	.
4BB	.	.	4b
4C	.	.	4a
4BB	.	.	4g
4C	.	2A	[2a
4D	.	.	.
=116	=116	=116	=116
2AA	0r	1a	2a]
1D	.	.	4g
.	.	.	4f
.	.	1g	1e
2C#i	.	.	.
=117	=117	=117	=117
1D	0r	1f	2r
.	.	.	2d
1r	.	2d	2.f
.	.	[2f	.
.	.	.	4g
=118	=118	=118	=118
1r	1r	2f]	4a
.	.	.	4g
.	.	4e	4a
.	.	4d	4b
1AA	1c	1e	4cc
.	.	.	4dd
.	.	.	4ee
.	.	.	4cc
=119	=119	=119	=119
2BB	2.B	1d	2.dd
1D	.	.	.
.	4A	.	4cc
.	4G	[1d	4b
.	4F	.	4a
2GG	[2G	.	[2b
=120	=120	=120	=120
1G	2G]	1d]	2b]
.	4F	.	4a
.	4E	.	4g
1F	1D	1d	1a
=121	=121	=121	=121
1E	2r	0e	0g
.	2C	.	.
2C	2.E	.	.
[2E	.	.	.
.	4F	.	.
=122	=122	=122	=122
2E]	4G	0r	0r
.	4F	.	.
4D	4G	.	.
4C	4A	.	.
1D	4B	.	.
.	4c	.	.
.	4d	.	.
.	4B	.	.
=123	=123	=123	=123
1C	2.c	1.e	0r
.	4B	.	.
[1C	4A	.	.
.	4G	.	.
.	[2A	2e	.
=124	=124	=124	=124
1C]	2A]	1e	0r
.	4G	.	.
.	4F	.	.
1C	1G	1e	.
=125	=125	=125	=125
0D	0F	1f	2r
.	.	.	2d
.	.	2d	2.f
.	.	[2f	.
.	.	.	4g
=126	=126	=126	=126
0r	0r	2f]	4a
.	.	.	4g
.	.	4e	4a
.	.	4d	4b
.	.	1e	4cc
.	.	.	4dd
.	.	.	4ee
.	.	.	4cc
=127	=127	=127	=127
1.D	0r	1d	2.dd
.	.	.	4cc
.	.	2.d	4b
.	.	.	4a
2D	.	.	[2b
.	.	4e	.
=128	=128	=128	=128
1D	0r	2d	2b]
.	.	1g	4a
.	.	.	4g
1D	.	.	1a
.	.	2f#i	.
=129	=129	=129	=129
1E	2r	2g	1g
.	2C	1e	.
2C	2.E	.	2g
[2E	.	4d	[2g
.	4F	4c	.
=130	=130	=130	=130
2E]	4G	0B	2g]
.	4F	.	.
4D	4G	.	4f
4C	4A	.	4e
1D	4B	.	1f
.	4c	.	.
.	4d	.	.
.	4B	.	.
=131	=131	=131	=131
1C	2.c	2r	2e
.	.	2e	2g
.	4B	.	.
2.C	4A	2c	2a
.	4G	.	.
.	[2A	2A	[2cc
4D	.	.	.
=132	=132	=132	=132
2C	2A]	2e	2cc]
1F	4G	2f	4b
.	4F	.	4a
.	1G	2d	2b
2E	.	2e	2g
=133	=133	=133	=133
2F	1F	2c	2a
1D	.	2d	1f
.	2F	[1A	.
4C	[2F	.	4e
4BB	.	.	4d
=134	=134	=134	=134
0AA	2F]	1A]	2c
.	4E	.	1d
.	4D	.	.
.	1E	1A	.
.	.	.	2c#i
=135	=135	=135	=135
2r	2D	2F	[0dl
2D	2F	1A	.
2BB	2G	.	.
2GG	[2B-i	[2G	.
=136	=136	=136	=136
[0Dl	2B-]	2G]	0d_
.	4A	4F	.
.	4G	4E	.
.	[1Al	[1Fl	.
=137	=137	=137	=137
00D]	00A]	00F]	00d]
=138||	=138||	=138||	=138||
*M2/1	*M2/1	*M2/1	*M2/1
*met(C2)	*met(C2)	*met(C2)	*met(C2)
!!section: Tertia pars: Qui jurat proximo suo
!!!OMD: Tertia pars: Qui jurat proximo suo
!LO:TX:a:t=Canon&colon; bassus/altus at the seventh	!LO:TX:a:t=Canon&colon; tenor/superius at the seventh	!	!
1AA	0r	0r	0r
2C	.	.	.
2D	.	.	.
=139	=139	=139	=139
1E	1r	0r	0r
2r	1E	.	.
2E	.	.	.
=140	=140	=140	=140
2.E	2G	0r	0r
.	2A	.	.
4E	.	.	.
1D	1B	.	.
=141	=141	=141	=141
2.C	2c	0r	0r
.	1c	.	.
4BB	.	.	.
1AA	.	.	.
.	2A	.	.
=142	=142	=142	=142
0GG	2B	1G	0r
.	2.d	.	.
.	.	2B	.
.	4c	.	.
.	4B	2c	.
.	4A	.	.
=143	=143	=143	=143
2r	2B	1d	1r
2D	2A	.	.
2D	2B	2r	1d
[2D	4A	2d	.
.	4G	.	.
=144	=144	=144	=144
4D]	2A	2.d	2f
4C	.	.	.
2BB	1G	.	2g
.	.	4e	.
1AA	.	1c	1a
.	2F#i	.	.
=145	=145	=145	=145
0GG	0G	2.B	2b
.	.	.	1b
.	.	4A	.
.	.	1G	.
.	.	.	2g
=146	=146	=146	=146
0r	0r	0F	2a
.	.	.	2.cc
.	.	.	4b
.	.	.	4a
.	.	.	4g
=147	=147	=147	=147
0r	0r	2r	2a
.	.	2c	2g
.	.	2c	2a
.	.	[2c	4g
.	.	.	4f
=148	=148	=148	=148
0r	0r	4c]	2g
.	.	4B	.
.	.	2A	1f
.	.	1G	.
.	.	.	2e
=149	=149	=149	=149
1.D	0A	0F	0f
2D	.	.	.
=150	=150	=150	=150
1AA	1A	0r	0r
1AA	2A	.	.
.	2A	.	.
=151	=151	=151	=151
2C	1.G	0r	0r
2BB	.	.	.
2C	.	.	.
[2E	2E	.	.
=152	=152	=152	=152
2E]	1F	0r	0r
2D	.	.	.
2E	2E	.	.
2E	[2G	.	.
=153	=153	=153	=153
2E	2G]	1.c	0g
2.C	4A	.	.
.	4B	.	.
.	4c	.	.
4BB	4d	.	.
[2C	[2e	2c	.
=154	=154	=154	=154
2C]	2e]	1G	1g
2D	1d	.	.
1E	.	1G	2g
.	2c#i	.	2g
=155	=155	=155	=155
0D	0d	2B	1.f
.	.	2A	.
.	.	2B	.
.	.	[2d	2d
=156	=156	=156	=156
1AA	0r	2d]	1e
.	.	2c#i	.
1D	.	2d	2d
.	.	2d	[2f
=157	=157	=157	=157
0r	0r	2d	2f]
.	.	2.B	4g
.	.	.	4a
.	.	.	4b
.	.	4A	4cc
.	.	[2B	[2dd
=158	=158	=158	=158
1r	0r	2B]	2dd]
.	.	2c	1cc
1GG	.	1d	.
.	.	.	2b
=159	=159	=159	=159
1AA	2r	0c	0cc
.	2.A	.	.
1C	.	.	.
.	4B	.	.
.	2c	.	.
=160	=160	=160	=160
1BB	1d	1G	0r
1AA	2c	1c	.
.	[2A	.	.
=161	=161	=161	=161
4AA	2A]	0r	0r
4BB	.	.	.
4C	4G	.	.
4D	4F	.	.
2E	1E	.	.
2C	.	.	.
=162	=162	=162	=162
2D	1D	1r	0r
2BB	.	.	.
1AA	1A	1F	.
=163	=163	=163	=163
0GG	1B	1G	2r
.	.	.	2.g
.	2G	1B	.
.	.	.	4a
.	[2G	.	2b
=164	=164	=164	=164
1r	2G]	1A	1cc
.	2F	.	.
[1GG	2G	1G	2b
.	[2B	.	[2g
=165	=165	=165	=165
2GG]	2B]	4G	2g]
.	.	4A	.
2AA	2.A	4B	4f
.	.	4c	4e
1BB	.	2d	1d
.	4G	.	.
.	2G	2B	.
=166	=166	=166	=166
1AA	2A	2c	1c
.	2c	2A	.
1E	1B	1G	1g
=167	=167	=167	=167
1F	1.A	0F	1a
2D	.	.	2f
[2D	2F	.	[2f
=168	=168	=168	=168
2D]	1G	1r	2f]
2C	.	.	2e
2D	1F	[1F	2f
[2F	.	.	[2a
=169	=169	=169	=169
2F]	0r	2F]	2a]
1E	.	2G	2.g
.	.	1A	.
.	.	.	4f
2D	.	.	2f
=170	=170	=170	=170
2E	0r	1G	2g
1G	.	.	2b-i
.	.	1d	1a
2F	.	.	.
=171	=171	=171	=171
2E	0r	1e	1.g
1C	.	.	.
.	.	2c	.
2E	.	[2c	2e
=172	=172	=172	=172
1D	1r	2c]	1f
.	.	2B	.
1C	1E	2c	1e
.	.	[2e	.
=173	=173	=173	=173
0r	2C	2e]	0r
.	2D	1d	.
.	1E	.	.
.	.	2c	.
=174	=174	=174	=174
2r	2.D	2d	0r
1D	.	1f	.
.	4E	.	.
.	4F	.	.
.	4G	.	.
2C	2A	2e	.
=175	=175	=175	=175
2BB	2.D	2d	0r
1GG	.	1B	.
.	4E	.	.
.	2D	.	.
2BB	[2G	2d	.
=176	=176	=176	=176
1AA	2G]	1c	1r
.	2F	.	.
[1GG	2G	1B	1d
.	[2G	.	.
=177	=177	=177	=177
2GG]	4G]	0r	2B
.	4F	.	.
2AA	1E	.	2c
1BB	.	.	1d
.	2D	.	.
=178	=178	=178	=178
1AA	0E	2r	2.c
.	.	1c	.
.	.	.	4d
1r	.	.	4e
.	.	.	4f
.	.	2B	2g
=179	=179	=179	=179
0r	0r	2A	2.c
.	.	1F	.
.	.	.	4d
.	.	.	2c
.	.	2A	[2f
=180	=180	=180	=180
1D	2r	1G	2f]
.	2E	.	2e
2D	4A	[1F	2f
.	4G	.	.
[2D	4F	.	[2f
.	4E	.	.
=181	=181	=181	=181
4D]	2D	2F]	4f]
4C	.	.	4e
2BB	2D	2G	1d
1AA	1E	1A	.
.	.	.	2c#i
=182	=182	=182	=182
1BB	1D	1G	0d
1GG	1G	1r	.
=183	=183	=183	=183
0D	2.F	0r	0r
.	4G	.	.
.	2A	.	.
.	2G	.	.
=184	=184	=184	=184
1D	1F	1c	2r
.	.	.	2d
1C	[1E	2c	4g
.	.	.	4f
.	.	[2c	4e
.	.	.	4d
=185	=185	=185	=185
1AA	1E]	4c]	2c
.	.	4B	.
.	.	2A	2c
1BB	1D	1G	1d
=186	=186	=186	=186
1AA	1E	1A	1c
1D	2r	1F	1f
.	2D	.	.
=187	=187	=187	=187
0C	2G	0c	2.e
.	2A	.	.
.	.	.	4f
.	2E	.	2g
.	2F	.	2f
=188	=188	=188	=188
1C	2G	1c	1e
.	2A	.	.
2D	2F	1B	[1d
[2GG	2G	.	.
=189	=189	=189	=189
2GG]	1D	1G	1d]
2BB	.	.	.
1AA	1E	[1Al	1c#i
=190	=190	=190	=190
00DDl	00Dl	00A]	00dl
==	==	==	==
*-	*-	*-	*-
!!!system-decoration: [*]
!!!RDF**kern: i = editorial accidental
!!!RDF**kern: l = terminal long
!!!ENC: Benjamin Ory
!!!END: 2022/3/4
!!!EED: Benjamin Ory
!!!EEV: 2022/03/04
!!!YEC: Copyright 2022 Benjamin Ory, All Rights Reserved
!!!ONB: Translated from MusicXML on 2022/03/04